paymentMethods/mbWay.svg

<svg width="128" height="64" viewBox="0 0 128 64" fill="none" xmlns="http://www.w3.org/2000/svg">
<rect width="128" height="64" rx="6" fill="white"/>
<path d="M14.6099 51.3658L14.4255 52.7844C14.4085 52.9372 14.4217 53.0919 14.4646 53.2395C14.5074 53.3872 14.579 53.525 14.6752 53.6449C14.7714 53.7648 14.8904 53.8646 15.0252 53.9384C15.1601 54.0123 15.3082 54.0588 15.4611 54.0753H61.1485C61.3019 54.0765 61.454 54.0475 61.5962 53.99C61.7384 53.9325 61.8678 53.8475 61.9771 53.7399C62.0865 53.6323 62.1736 53.5043 62.2334 53.363C62.2932 53.2218 62.3247 53.0702 62.3259 52.9168C62.3306 52.8712 62.3306 52.8252 62.3259 52.7797L62.1368 51.3611C62.0822 50.835 62.2373 50.3086 62.5684 49.8961C62.8995 49.4836 63.3798 49.2182 63.9052 49.1576C64.4268 49.1033 64.9486 49.2579 65.3563 49.5876C65.764 49.9173 66.0244 50.3952 66.0804 50.9166V50.9166L66.2601 52.2832C66.6147 55.3236 64.8841 58 61.8105 58H14.9409C11.8626 58 10.1367 55.3283 10.4914 52.2832L10.6663 50.9166C10.6923 50.6582 10.769 50.4076 10.8919 50.1788C11.0148 49.9501 11.1816 49.7479 11.3827 49.5837C11.5839 49.4194 11.8154 49.2964 12.064 49.2217C12.3127 49.147 12.5737 49.122 12.832 49.1481V49.1481C13.3583 49.2076 13.8398 49.4725 14.1719 49.8851C14.5039 50.2977 14.6597 50.8248 14.6052 51.3516" fill="#D60510"/>
<path d="M56.7084 40.807C58.9261 40.807 60.6899 39.1993 60.6473 37.0762C60.6048 34.9531 58.6235 33.492 56.4153 33.492H51.9562C51.4814 33.468 51.034 33.2624 50.7065 32.9179C50.3789 32.5734 50.1962 32.1161 50.1962 31.6407C50.1962 31.1653 50.3789 30.7081 50.7065 30.3635C51.034 30.019 51.4814 29.8135 51.9562 29.7895H54.9352C56.9401 29.7091 58.4911 28.4939 58.5857 26.593C58.685 24.5597 56.9401 23.0324 54.8028 23.0324H47.5729L47.5445 40.8118H56.7084V40.807ZM62.1889 26.5788C62.1889 28.4324 61.5316 29.4821 60.444 30.7778L60.3353 30.9054L60.4866 31C62.6428 32.3098 64.1465 34.31 64.2694 37.0809C64.4349 41.2326 60.9216 44.6466 56.7463 44.6466H45.724C45.4665 44.6436 45.2121 44.5897 44.9755 44.4882C44.7389 44.3866 44.5246 44.2394 44.3449 44.0549C44.1653 43.8704 44.0238 43.6523 43.9286 43.4131C43.8333 43.1738 43.7863 42.9181 43.79 42.6606V21.3254C43.7863 21.0683 43.8332 20.813 43.9281 20.574C44.023 20.3351 44.1641 20.1172 44.3433 19.9327C44.5224 19.7483 44.7361 19.601 44.9722 19.4992C45.2083 19.3974 45.4622 19.3431 45.7193 19.3394H54.8076C58.7701 19.3394 62.1889 22.2522 62.1889 26.5551" fill="black"/>
<path d="M26.7199 37.3363L26.7719 37.4876L26.8239 37.3363C27.3346 35.9177 27.9493 34.3762 28.6018 32.6786C29.2733 30.8944 29.9447 29.1874 30.6162 27.5576C31.2924 25.9073 31.9307 24.4367 32.5455 23.1506C32.9538 22.1989 33.4576 21.2911 34.0491 20.4411C34.3353 20.0931 34.6968 19.8147 35.1064 19.6271C35.5161 19.4395 35.963 19.3476 36.4134 19.3583H36.8863C37.4009 19.3382 37.9052 19.5063 38.3048 19.8311C38.6271 20.0678 38.8483 20.4173 38.9243 20.8099L41.7614 42.8829C41.7756 43.1255 41.741 43.3684 41.6598 43.5974C41.5786 43.8264 41.4524 44.0369 41.2886 44.2163C40.9068 44.5499 40.4091 44.7197 39.9031 44.6892C39.3957 44.7118 38.8957 44.5618 38.4845 44.2636C38.301 44.1384 38.1464 43.9753 38.0314 43.7852C37.9164 43.5951 37.8435 43.3825 37.8178 43.1619C37.7232 42.4289 37.6334 41.6109 37.5435 40.7172C37.4537 39.8235 36.9761 35.9886 36.8484 35.0098C36.7208 34.031 35.898 27.7515 35.6143 25.4818V25.2926L34.7017 27.184C34.3896 27.8413 34.0586 28.631 33.6898 29.5483C33.3209 30.4657 32.9521 31.4397 32.588 32.4658C32.2239 33.4919 30.4129 38.5137 30.4129 38.5137C30.2474 38.9865 29.94 39.885 29.6563 40.7314C29.3726 41.5778 29.1125 42.3344 29.0463 42.481C28.8305 42.8986 28.5039 43.2489 28.1023 43.4934C27.7007 43.7379 27.2397 43.8672 26.7695 43.8672C26.2994 43.8672 25.8383 43.7379 25.4367 43.4934C25.0351 43.2489 24.7086 42.8986 24.4927 42.481C24.417 42.3344 24.157 41.5731 23.8733 40.7314C23.5895 39.8897 23.2869 38.9676 23.1167 38.5137C23.1167 38.5137 21.3577 33.4825 20.9605 32.4848C20.5633 31.487 20.2275 30.4893 19.8587 29.5672C19.4899 28.6452 19.1589 27.8602 18.8562 27.203L17.9389 25.3115V25.5007C17.6457 27.7515 16.8655 34.0121 16.7473 34.9956C16.6291 35.9792 16.1752 39.814 16.0569 40.703C15.9387 41.592 15.8583 42.41 15.7543 43.1288C15.7285 43.3489 15.6562 43.561 15.542 43.751C15.4279 43.9409 15.2746 44.1044 15.0923 44.2305C14.6812 44.5287 14.1811 44.6787 13.6737 44.6561C13.4245 44.672 13.1746 44.6384 12.9384 44.5573C12.7023 44.4761 12.4845 44.349 12.2977 44.1832C12.1339 44.0038 12.0077 43.7933 11.9265 43.5643C11.8453 43.3353 11.8107 43.0924 11.8249 42.8498L14.662 20.7957C14.7283 20.4073 14.9333 20.0562 15.2389 19.8075C15.6386 19.4827 16.1429 19.3146 16.6575 19.3346H17.1303C17.5807 19.3239 18.0277 19.4159 18.4373 19.6035C18.8469 19.7911 19.2085 20.0694 19.4946 20.4175C20.0898 21.2652 20.5938 22.1734 20.9983 23.1269C21.6004 24.4131 22.2435 25.8821 22.9275 27.534C23.6116 29.1858 24.2846 30.8928 24.9466 32.655C25.5945 34.3525 26.2092 35.9082 26.7199 37.3126" fill="black"/>
<path d="M21.1401 6H55.7296C58.9876 6 60.6095 8.4494 60.9925 11.6743L61.1391 12.7051C61.191 13.2352 61.0328 13.7645 60.6986 14.1792C60.3643 14.5939 59.8807 14.8609 59.3517 14.9228C59.0908 14.9489 58.8274 14.9234 58.5765 14.8478C58.3255 14.7721 58.0919 14.6477 57.8891 14.4817C57.6862 14.3157 57.518 14.1114 57.3941 13.8804C57.2702 13.6494 57.1931 13.3962 57.1671 13.1354V13.1354L57.0299 12.1471C56.8833 10.9224 56.3632 9.97672 55.1385 9.97672H21.7501C20.5018 9.97672 19.9863 10.9224 19.8587 12.1471L19.7263 13.1354C19.6748 13.6621 19.4163 14.1468 19.0075 14.4829C18.5987 14.819 18.0731 14.9789 17.5464 14.9275V14.9275C17.0141 14.8704 16.5262 14.6042 16.1902 14.1874C15.8541 13.7706 15.6973 13.2375 15.7543 12.7051L15.8772 11.6743C16.265 8.44467 17.8821 6 21.1401 6Z" fill="#D60510"/>
<path d="M83.3728 29.2456C83.1363 30.1913 82.8999 31.137 82.6304 32.2057C82.3609 33.2743 82.1102 34.2579 81.8549 35.213C81.5996 36.1682 81.382 37.0052 81.1362 37.7334C80.9816 38.244 80.7805 38.7394 80.5356 39.2134C80.3908 39.454 80.1806 39.6485 79.9294 39.7741C79.6782 39.8997 79.3964 39.9512 79.1171 39.9227C78.8672 39.9141 78.6194 39.8744 78.3794 39.8045C78.2162 39.7558 78.0648 39.674 77.9346 39.5641C77.8044 39.4543 77.6983 39.3188 77.6228 39.1661C77.3827 38.6655 77.1911 38.1429 77.0507 37.6057C76.8237 36.8302 76.5778 35.946 76.3319 34.934C76.0861 33.9221 75.8307 32.8629 75.5754 31.7328C75.32 30.6027 75.1025 29.5671 74.8897 28.5978C74.6769 27.6284 74.5445 26.8056 74.3885 26.1295C74.2325 25.4533 74.1804 25.0466 74.1615 24.9095C74.149 24.8503 74.1411 24.7902 74.1379 24.7298V24.6305C74.1336 24.4971 74.161 24.3646 74.2177 24.2438C74.2744 24.123 74.3588 24.0173 74.4642 23.9354C74.6944 23.7552 74.9805 23.6615 75.2727 23.6706C75.5324 23.6606 75.7892 23.7281 76.0104 23.8645C76.2221 24.0274 76.3654 24.2635 76.4123 24.5265C76.4123 24.5596 76.4596 24.8055 76.5495 25.2594C76.6393 25.7133 76.7622 26.295 76.9041 26.9948C77.046 27.6946 77.2067 28.489 77.377 29.3591C77.5472 30.2291 77.7363 31.1181 77.9302 32.0165C78.1241 32.915 78.3179 33.7755 78.5118 34.622C78.7057 35.4684 78.8854 36.1871 79.0556 36.7876C79.2258 36.2202 79.4055 35.5677 79.6136 34.8348C79.8216 34.1018 80.0202 33.3452 80.2188 32.5698C80.4174 31.7943 80.616 31.0093 80.8052 30.2055C80.9943 29.4016 81.1598 28.6971 81.3206 28.0256C81.4813 27.3542 81.6185 26.7584 81.7367 26.2429C81.8549 25.7275 81.9447 25.3351 82.0157 25.0797C82.0878 24.7832 82.2536 24.5179 82.4885 24.3231C82.7373 24.1387 83.0395 24.0407 83.3491 24.0442C83.6781 24.033 84.0008 24.1367 84.2617 24.3373C84.4983 24.5246 84.6649 24.7862 84.7346 25.0797C84.9237 25.9025 85.1223 26.8246 85.3399 27.8365C85.5574 28.8484 85.8127 29.8792 86.0208 30.9195C86.2288 31.9598 86.4936 32.9859 86.7537 33.9836C87.0138 34.9813 87.2549 35.875 87.4914 36.6411C87.6569 36.0405 87.8413 35.3123 88.0351 34.4754C88.229 33.6384 88.4229 32.7684 88.6215 31.8794C88.8201 30.9904 89.0234 30.1109 89.2031 29.2361C89.3828 28.3613 89.5625 27.5811 89.7185 26.8718C89.8746 26.1626 89.988 25.6093 90.0826 25.1743C90.1772 24.7393 90.2197 24.5076 90.2197 24.4934C90.2681 24.2284 90.413 23.9909 90.6264 23.8266C90.8474 23.6944 91.1019 23.6287 91.3593 23.6375C91.6502 23.6278 91.935 23.7217 92.1632 23.9023C92.27 23.9832 92.3557 24.0886 92.4133 24.2095C92.4709 24.3305 92.4987 24.4635 92.4942 24.5974V24.6967C92.4988 24.7549 92.4988 24.8134 92.4942 24.8717C92.4942 25.0088 92.3949 25.4107 92.253 26.0916C92.1112 26.7725 91.9409 27.6 91.7376 28.5599C91.5343 29.5198 91.3073 30.5696 91.052 31.6855C90.7966 32.8015 90.5555 33.8654 90.3096 34.8726C90.0637 35.8798 89.8367 36.764 89.6003 37.53C89.4594 38.0619 89.2694 38.5795 89.0329 39.0763C88.9558 39.2332 88.8485 39.3734 88.717 39.4886C88.5855 39.6039 88.4325 39.6919 88.2668 39.7477C88.0245 39.8243 87.7735 39.8703 87.5197 39.8849H87.2124C87.0663 39.862 86.9224 39.8272 86.7821 39.7808C86.6123 39.7291 86.4525 39.6491 86.3092 39.5444C86.1525 39.4315 86.0299 39.2778 85.9546 39.0999C85.734 38.5862 85.5522 38.0567 85.4108 37.5158C85.2027 36.7735 84.971 35.946 84.7299 35.0097C84.4887 34.0734 84.257 33.1183 84.0064 32.0874C83.7558 31.0566 83.5335 30.1156 83.3491 29.2503" fill="black"/>
<path d="M96.575 35.265C96.3196 36.0736 96.1021 36.816 95.9083 37.5016C95.7144 38.1873 95.53 38.7547 95.3645 39.1897C95.2934 39.3416 95.1931 39.4779 95.0692 39.5908C94.9453 39.7037 94.8003 39.791 94.6425 39.8477C94.4848 39.9044 94.3174 39.9293 94.1499 39.9211C93.9825 39.9129 93.8184 39.8716 93.6669 39.7997C93.5717 39.7565 93.4827 39.7009 93.4021 39.6342C93.2221 39.4298 93.1273 39.1641 93.1373 38.8918C93.1364 38.7798 93.1524 38.6682 93.1846 38.5608C93.2177 38.4663 93.3265 38.1164 93.5014 37.53C93.6764 36.9437 93.9081 36.2107 94.1965 35.3407L95.1422 32.4704C95.4921 31.4302 95.8468 30.3993 96.2203 29.3827C96.5939 28.3661 96.9533 27.4156 97.3079 26.5456C97.5867 25.8154 97.9137 25.1045 98.2867 24.4177C98.3939 24.1659 98.5865 23.96 98.8305 23.8361C99.1317 23.7202 99.4539 23.6687 99.7762 23.6848C100.1 23.6777 100.422 23.7372 100.722 23.8597C100.844 23.9169 100.953 23.9978 101.043 24.0977C101.133 24.1975 101.202 24.3144 101.247 24.4413C101.488 24.9426 101.772 25.6235 102.098 26.4699C102.424 27.3163 102.76 28.2242 103.129 29.2172C103.498 30.2102 103.848 31.2032 104.202 32.2246C104.557 33.2459 104.888 34.2011 105.181 35.0617C105.474 35.9223 105.729 36.6931 105.938 37.3125C106.146 37.9319 106.278 38.3386 106.33 38.5183C106.364 38.6254 106.381 38.737 106.382 38.8493C106.383 38.9849 106.355 39.1191 106.302 39.2436C106.248 39.3681 106.169 39.4802 106.07 39.5728C105.824 39.781 105.507 39.8846 105.186 39.8612C104.953 39.8786 104.723 39.8096 104.538 39.6673C104.382 39.5181 104.265 39.333 104.197 39.1283C104.032 38.6932 103.833 38.1258 103.606 37.4402C103.379 36.7545 103.134 36.0216 102.883 35.2036L96.575 35.265ZM102.188 33.071C101.835 31.9771 101.497 30.9746 101.176 30.0636C100.854 29.1463 100.528 28.2762 100.188 27.4534C100.103 27.269 100.017 27.061 99.9228 26.8104L99.7573 26.3753C99.69 26.5067 99.6361 26.6445 99.5965 26.7867C99.502 27.0452 99.4121 27.2674 99.327 27.4534C98.996 28.2762 98.665 29.1463 98.3529 30.0589C98.0408 30.9715 97.7051 31.9787 97.3552 33.0662H102.188V33.071Z" fill="black"/>
<path d="M110.751 33.5722C110.666 33.4865 110.587 33.3948 110.515 33.298C110.426 33.1864 110.344 33.0695 110.269 32.9481C110.032 32.6123 109.796 32.2057 109.498 31.7234C109.2 31.2411 108.945 30.7398 108.666 30.2055C108.387 29.6712 108.122 29.1227 107.862 28.5789C107.602 28.0351 107.361 27.5291 107.153 27.0563L106.609 25.86C106.494 25.6277 106.401 25.3855 106.33 25.1365C106.27 25.0201 106.248 24.8876 106.269 24.7582C106.265 24.6175 106.291 24.4777 106.346 24.3481C106.4 24.2184 106.482 24.1019 106.585 24.0064C106.703 23.9011 106.841 23.8202 106.99 23.7683C107.139 23.7164 107.298 23.6944 107.455 23.7037C107.587 23.6906 107.72 23.7062 107.845 23.7495C107.97 23.7928 108.084 23.8627 108.179 23.9543C108.31 24.1046 108.416 24.2756 108.491 24.4603C108.524 24.5501 108.609 24.7298 108.732 25.0135L109.205 26.068C109.389 26.4888 109.602 26.9522 109.839 27.4535C110.075 27.9547 110.311 28.4559 110.562 28.943C110.813 29.43 111.035 29.8887 111.271 30.3615C111.457 30.7418 111.672 31.107 111.914 31.4538C112.294 30.8605 112.639 30.2464 112.95 29.6144C113.319 28.8705 113.672 28.1407 114.009 27.4251L114.884 25.5337L115.328 24.5029C115.406 24.3176 115.511 24.1453 115.641 23.9922C115.736 23.9029 115.85 23.8345 115.974 23.7914C116.097 23.7482 116.229 23.7313 116.359 23.7416C116.68 23.7244 116.995 23.8349 117.234 24.0489C117.337 24.145 117.418 24.2616 117.472 24.3911C117.527 24.5207 117.554 24.6602 117.551 24.8008C117.556 24.8637 117.556 24.9269 117.551 24.9899C117.537 25.0543 117.518 25.1176 117.494 25.179L117.163 25.86C117.021 26.2099 116.842 26.626 116.629 27.0941C116.416 27.5622 116.184 28.0729 115.929 28.6167C115.674 29.1605 115.395 29.7043 115.12 30.2433C114.846 30.7824 114.562 31.2931 114.283 31.7801C114.004 32.2672 113.744 32.6785 113.513 33.0143C113.372 33.22 113.214 33.4131 113.04 33.5912V38.7926C113.046 38.9434 113.021 39.0938 112.966 39.2345C112.912 39.3752 112.829 39.5032 112.723 39.6106C112.498 39.8136 112.206 39.926 111.903 39.926C111.6 39.926 111.307 39.8136 111.082 39.6106C110.976 39.5032 110.893 39.3752 110.839 39.2345C110.784 39.0938 110.759 38.9434 110.765 38.7926V33.5912L110.751 33.5722Z" fill="black"/>
</svg>

<svg xmlns="http://www.w3.org/2000/svg" width="128" height="64" fill="none"><rect width="128" height="64" fill="#fff" rx="6"/><path fill="#D60510" d="m14.61 51.366-.184 1.418a1.168 1.168 0 0 0 1.035 1.291H61.15a1.17 1.17 0 0 0 1.177-1.158.668.668 0 0 0 0-.137l-.19-1.419a2.01 2.01 0 0 1 1.77-2.203 1.981 1.981 0 0 1 2.174 1.759l.18 1.366c.355 3.04-1.376 5.717-4.45 5.717H14.94c-3.077 0-4.803-2.672-4.449-5.717l.175-1.366a1.977 1.977 0 0 1 2.166-1.769 2.01 2.01 0 0 1 1.773 2.204"/><path fill="#000" d="M56.708 40.807c2.218 0 3.982-1.608 3.94-3.73-.043-2.124-2.025-3.585-4.233-3.585h-4.459a1.853 1.853 0 0 1 0-3.702h2.98c2.004-.08 3.555-1.296 3.65-3.197.099-2.033-1.646-3.56-3.783-3.56h-7.23l-.029 17.779h9.164v-.005Zm5.48-14.228c0 1.853-.656 2.903-1.744 4.199l-.109.127.152.095c2.156 1.31 3.66 3.31 3.782 6.08.166 4.153-3.347 7.567-7.523 7.567H45.724a1.957 1.957 0 0 1-1.934-1.986V21.325a1.96 1.96 0 0 1 1.93-1.986h9.088c3.962 0 7.38 2.913 7.38 7.216M26.72 37.336l.052.152.052-.152c.51-1.418 1.125-2.96 1.778-4.657a178.538 178.538 0 0 1 2.014-5.121 85.648 85.648 0 0 1 1.93-4.407c.408-.952.912-1.86 1.503-2.71a2.97 2.97 0 0 1 2.364-1.083h.473a2.118 2.118 0 0 1 1.419.473c.322.237.543.586.62.979l2.836 22.073a1.82 1.82 0 0 1-.472 1.333 1.93 1.93 0 0 1-1.386.473 2.246 2.246 0 0 1-1.419-.425 1.551 1.551 0 0 1-.666-1.102 89.097 89.097 0 0 1-.274-2.445c-.09-.893-.568-4.728-.696-5.707-.127-.979-.95-7.258-1.234-9.528v-.19l-.912 1.892a43.693 43.693 0 0 0-1.012 2.364 75.544 75.544 0 0 0-1.102 2.918c-.364 1.026-2.175 6.048-2.175 6.048-.166.472-.473 1.371-.757 2.217-.283.847-.543 1.603-.61 1.75a2.563 2.563 0 0 1-4.553 0c-.076-.147-.336-.908-.62-1.75-.284-.841-.586-1.763-.756-2.217 0 0-1.76-5.032-2.157-6.03-.397-.997-.733-1.995-1.101-2.917-.37-.922-.7-1.707-1.003-2.364l-.917-1.892v.19a1908.76 1908.76 0 0 0-1.192 9.495c-.118.983-.572 4.818-.69 5.707-.118.889-.199 1.707-.303 2.426a1.56 1.56 0 0 1-.662 1.102 2.246 2.246 0 0 1-1.418.425 1.893 1.893 0 0 1-1.376-.473 1.82 1.82 0 0 1-.473-1.333l2.837-22.054c.066-.389.271-.74.577-.988.4-.325.904-.493 1.418-.473h.473a2.97 2.97 0 0 1 2.365 1.082c.595.848 1.099 1.756 1.503 2.71a107.373 107.373 0 0 1 1.93 4.407 165.419 165.419 0 0 1 2.019 5.121c.648 1.697 1.262 3.253 1.773 4.658"/><path fill="#D60510" d="M21.14 6h34.59c3.258 0 4.88 2.45 5.263 5.674l.146 1.031a2.033 2.033 0 0 1-1.787 2.218 1.998 1.998 0 0 1-2.185-1.788l-.137-.988c-.147-1.225-.667-2.17-1.892-2.17H21.75c-1.248 0-1.764.945-1.891 2.17l-.133.988a1.996 1.996 0 0 1-2.18 1.793 2.019 2.019 0 0 1-1.792-2.223l.123-1.03C16.265 8.444 17.882 6 21.14 6Z"/><path fill="#000" d="M83.373 29.246c-.237.945-.473 1.891-.743 2.96-.27 1.068-.52 2.052-.775 3.007-.255.955-.473 1.792-.719 2.52a8.746 8.746 0 0 1-.6 1.48 1.48 1.48 0 0 1-1.419.71 3.008 3.008 0 0 1-.738-.119 1.239 1.239 0 0 1-.756-.638 8.69 8.69 0 0 1-.572-1.56 58.846 58.846 0 0 1-.72-2.672 200.915 200.915 0 0 1-.756-3.201c-.255-1.13-.472-2.166-.685-3.135-.213-.97-.346-1.792-.502-2.468-.156-.677-.208-1.083-.227-1.22a1.17 1.17 0 0 1-.023-.18v-.1a.846.846 0 0 1 .326-.695c.23-.18.517-.273.809-.264.26-.01.516.057.737.194.212.162.355.399.402.662 0 .033.048.278.137.732.09.454.213 1.036.355 1.736s.303 1.494.473 2.364c.17.87.36 1.76.553 2.657.194.899.388 1.76.582 2.606.194.846.373 1.565.544 2.166.17-.568.35-1.22.558-1.953.208-.733.406-1.49.605-2.265.198-.776.397-1.56.586-2.364.19-.804.355-1.509.516-2.18.16-.672.297-1.268.416-1.783.118-.515.208-.908.279-1.163.072-.297.238-.562.472-.757.25-.184.552-.282.861-.279.33-.011.652.093.913.293.236.188.403.45.473.743.189.823.387 1.745.605 2.757.217 1.011.473 2.042.68 3.082.209 1.04.474 2.067.734 3.065.26.997.5 1.891.737 2.657.166-.6.35-1.329.544-2.166.194-.837.388-1.707.587-2.596.198-.889.401-1.768.581-2.643.18-.875.36-1.655.516-2.364.156-.71.269-1.263.364-1.698.094-.435.137-.666.137-.68.048-.266.193-.503.406-.667.221-.133.476-.198.733-.19.291-.01.576.085.804.265a.837.837 0 0 1 .331.695v.1c.005.058.005.116 0 .175 0 .137-.1.539-.241 1.22-.142.68-.312 1.508-.515 2.468-.204.96-.43 2.01-.686 3.126-.255 1.115-.497 2.18-.742 3.187a47.37 47.37 0 0 1-.71 2.657c-.14.532-.33 1.05-.567 1.546a1.325 1.325 0 0 1-.766.672 3.062 3.062 0 0 1-.747.137h-.308a2.704 2.704 0 0 1-.43-.104 1.583 1.583 0 0 1-.473-.237 1.054 1.054 0 0 1-.354-.444 11.182 11.182 0 0 1-.544-1.584c-.208-.742-.44-1.57-.681-2.506-.241-.937-.473-1.892-.724-2.923-.25-1.03-.472-1.971-.657-2.837M96.575 35.265a75.84 75.84 0 0 0-.667 2.237 20.817 20.817 0 0 1-.543 1.688 1.272 1.272 0 0 1-1.963.444 1.064 1.064 0 0 1-.265-.742c0-.112.015-.224.048-.331.033-.095.141-.445.316-1.031.175-.586.407-1.32.695-2.19l.946-2.87c.35-1.04.705-2.07 1.078-3.087a88.492 88.492 0 0 1 1.088-2.837c.279-.73.606-1.441.979-2.128.107-.252.3-.458.543-.582.302-.116.624-.167.946-.151.324-.007.646.052.946.175a1.008 1.008 0 0 1 .525.581c.241.502.525 1.183.851 2.029.326.846.662 1.754 1.031 2.747.369.993.719 1.986 1.073 3.008.355 1.02.686 1.976.979 2.837.293.86.548 1.631.757 2.25.208.62.34 1.027.392 1.206.034.107.051.219.052.331a.99.99 0 0 1-.312.724 1.23 1.23 0 0 1-.884.288.946.946 0 0 1-.648-.194 1.323 1.323 0 0 1-.341-.539 43.456 43.456 0 0 1-.591-1.688c-.227-.685-.472-1.418-.723-2.236l-6.308.061Zm5.613-2.194a119.63 119.63 0 0 0-1.012-3.007 51.616 51.616 0 0 0-.988-2.61 9.592 9.592 0 0 1-.265-.644l-.166-.435c-.067.132-.12.27-.16.412-.095.258-.185.48-.27.666a52.461 52.461 0 0 0-.974 2.606c-.312.912-.648 1.92-.998 3.007h4.833v.005ZM110.751 33.572a2.555 2.555 0 0 1-.236-.274 3.572 3.572 0 0 1-.246-.35c-.237-.336-.473-.742-.771-1.225-.298-.482-.553-.983-.832-1.517a51.665 51.665 0 0 1-.804-1.627c-.26-.544-.501-1.05-.709-1.523l-.544-1.196a4.268 4.268 0 0 1-.279-.723.612.612 0 0 1-.061-.379.978.978 0 0 1 .316-.752 1.203 1.203 0 0 1 .87-.302.915.915 0 0 1 .724.25c.131.15.237.322.312.506.033.09.118.27.241.553l.473 1.055c.184.42.397.884.634 1.385.236.502.472 1.003.723 1.49.251.487.473.946.709 1.418.186.38.401.746.643 1.093.38-.594.725-1.208 1.036-1.84.369-.744.722-1.473 1.059-2.189l.875-1.891.444-1.031c.078-.185.183-.358.313-.51a.934.934 0 0 1 .718-.251c.321-.018.636.093.875.307a.994.994 0 0 1 .317.752c.005.063.005.126 0 .189a1.247 1.247 0 0 1-.057.189l-.331.681c-.142.35-.321.766-.534 1.234-.213.468-.445.979-.7 1.523-.255.543-.534 1.087-.809 1.626a34.82 34.82 0 0 1-.837 1.537c-.279.487-.539.898-.77 1.234a4.32 4.32 0 0 1-.473.577v5.202a1.094 1.094 0 0 1-.317.818 1.224 1.224 0 0 1-1.641 0 1.094 1.094 0 0 1-.317-.818V33.59l-.014-.019Z"/></svg>
